public/logo.svg

<?xml version="1.0" encoding="UTF-8"?>
<svg xmlns="http://www.w3.org/2000/svg" xmlns:xlink="http://www.w3.org/1999/xlink" width="200px" height="64px" viewBox="0 0 304 64" version="1.1">
<defs>
<linearGradient id="linear0" gradientUnits="userSpaceOnUse" x1="0" y1="116.5" x2="1106.58" y2="116.5" gradientTransform="matrix(0.274616,0,0,0.274678,0.0576694,0)">
<stop offset="0.01" style="stop-color:rgb(74.117647%,14.117647%,87.45098%);stop-opacity:1;"/>
<stop offset="1" style="stop-color:rgb(17.647059%,41.568627%,87.058824%);stop-opacity:1;"/>
</linearGradient>
<linearGradient id="linear1" gradientUnits="userSpaceOnUse" x1="242.01" y1="117.54" x2="301.33" y2="117.54" gradientTransform="matrix(0.274616,0,0,0.274678,0.0576694,0)">
<stop offset="0.01" style="stop-color:rgb(74.117647%,14.117647%,87.45098%);stop-opacity:1;"/>
<stop offset="1" style="stop-color:rgb(17.647059%,41.568627%,87.058824%);stop-opacity:1;"/>
</linearGradient>
<linearGradient id="linear2" gradientUnits="userSpaceOnUse" x1="54.68" y1="117.54" x2="399.93" y2="117.54" gradientTransform="matrix(0.274616,0,0,0.274678,0.0576694,0)">
<stop offset="0.01" style="stop-color:rgb(74.117647%,14.117647%,87.45098%);stop-opacity:1;"/>
<stop offset="1" style="stop-color:rgb(17.647059%,41.568627%,87.058824%);stop-opacity:1;"/>
</linearGradient>
<linearGradient id="linear3" gradientUnits="userSpaceOnUse" x1="166.66" y1="117.53" x2="376.7" y2="117.53" gradientTransform="matrix(0.274616,0,0,0.274678,0.0576694,0)">
<stop offset="0.01" style="stop-color:rgb(74.117647%,14.117647%,87.45098%);stop-opacity:1;"/>
<stop offset="1" style="stop-color:rgb(17.647059%,41.568627%,87.058824%);stop-opacity:1;"/>
</linearGradient>
<linearGradient id="linear4" gradientUnits="userSpaceOnUse" x1="182.14" y1="117.53" x2="361.21" y2="117.53" gradientTransform="matrix(0.274616,0,0,0.274678,0.0576694,0)">
<stop offset="0.01" style="stop-color:rgb(74.117647%,14.117647%,87.45098%);stop-opacity:1;"/>
<stop offset="1" style="stop-color:rgb(17.647059%,41.568627%,87.058824%);stop-opacity:1;"/>
</linearGradient>
</defs>
<g id="surface1">
<path style=" stroke:none;fill-rule:evenodd;fill:rgb(10.196078%,10.196078%,10.196078%);fill-opacity:1;" d="M 126.007812 2.433594 L 301.433594 2.433594 L 296.367188 45.675781 L 284.21875 61.769531 L 22.761719 61.703125 C 19.828125 61.769531 12.71875 56.179688 12.71875 56.179688 C 8.085938 52.707031 2.28125 45.847656 2.28125 34.179688 C 2.289062 24.941406 6.257812 16.507812 10.492188 11.886719 C 16.222656 5.648438 24.078125 2.101562 32.035156 2.234375 L 71.152344 2.429688 Z M 126.007812 2.433594 "/>
<path style=" stroke:none;fill-rule:nonzero;fill:url(#linear0);" d="M 285.332031 64 L 28.691406 64 C 22.421875 64.023438 16.332031 61.90625 11.425781 58.003906 L 11.320312 57.914062 C 7.109375 54.5 0.0585938 46.605469 0.0585938 32.097656 C 0.0585938 21.605469 4.019531 16.082031 8.800781 10.4375 C 14.570312 3.636719 23.222656 -0.1875 32.527344 0 L 71.382812 0.199219 L 303.941406 0.199219 L 298.511719 46.539062 Z M 31.960938 4.460938 C 24.160156 4.460938 16.992188 7.675781 12.203125 13.328125 C 7.847656 18.460938 4.511719 23.101562 4.511719 32.101562 C 4.511719 44.757812 10.53125 51.535156 14.125 54.445312 L 14.238281 54.542969 C 18.351562 57.800781 23.445312 59.5625 28.691406 59.539062 L 283.109375 59.539062 L 294.222656 44.816406 L 298.929688 4.667969 L 71.371094 4.667969 L 32.476562 4.476562 Z M 31.960938 4.460938 "/>
<path style=" stroke:none;fill-rule:nonzero;fill:rgb(100%,100%,100%);fill-opacity:1;" d="M 126.234375 44.105469 L 125.023438 49.902344 L 106.386719 49.902344 L 113.800781 14.984375 L 119.890625 14.984375 L 113.777344 44.097656 Z M 126.234375 44.105469 "/>
<path style=" stroke:none;fill-rule:nonzero;fill:rgb(100%,100%,100%);fill-opacity:1;" d="M 165.664062 14.734375 L 161.332031 35.089844 C 160.894531 37.109375 160.09375 39.03125 158.964844 40.757812 C 157.839844 42.503906 156.457031 44.066406 154.859375 45.394531 C 153.28125 46.710938 151.503906 47.765625 149.59375 48.519531 C 147.71875 49.265625 145.71875 49.652344 143.699219 49.652344 L 143.449219 49.652344 C 141.574219 49.679688 139.714844 49.292969 138.007812 48.519531 C 136.453125 47.808594 135.089844 46.738281 134.027344 45.394531 C 132.972656 44.03125 132.238281 42.445312 131.886719 40.757812 C 131.503906 38.886719 131.53125 36.953125 131.964844 35.089844 L 136.292969 14.734375 L 142.136719 14.734375 L 139.015625 29.292969 L 137.808594 35.085938 C 137.539062 36.199219 137.523438 37.363281 137.753906 38.484375 C 137.96875 39.496094 138.40625 40.441406 139.039062 41.257812 C 139.671875 42.054688 140.484375 42.695312 141.40625 43.121094 C 142.425781 43.589844 143.535156 43.820312 144.65625 43.804688 L 144.910156 43.804688 C 146.125 43.800781 147.328125 43.570312 148.460938 43.125 C 150.777344 42.21875 152.746094 40.59375 154.078125 38.488281 C 154.742188 37.445312 155.222656 36.296875 155.492188 35.089844 L 156.703125 29.296875 L 159.824219 14.738281 Z M 165.664062 14.734375 "/>
<path style=" stroke:none;fill-rule:nonzero;fill:rgb(100%,100%,100%);fill-opacity:1;" d="M 198.878906 14.671875 L 197.628906 20.519531 L 172.023438 20.519531 L 173.285156 14.671875 Z M 187.070312 24.65625 L 181.597656 49.652344 L 175.8125 49.652344 L 181.28125 24.65625 Z M 187.070312 24.65625 "/>
<path style=" stroke:none;fill-rule:nonzero;fill:rgb(100%,100%,100%);fill-opacity:1;" d="M 212.761719 14.734375 L 205.347656 49.652344 L 199.5625 49.652344 L 206.976562 14.734375 Z M 212.761719 14.734375 "/>
<path style=" stroke:none;fill-rule:nonzero;fill:rgb(100%,100%,100%);fill-opacity:1;" d="M 247.703125 29.296875 L 246.496094 35.089844 C 246.058594 37.105469 245.265625 39.023438 244.152344 40.757812 C 243.042969 42.507812 241.664062 44.070312 240.070312 45.394531 C 238.496094 46.710938 236.71875 47.765625 234.808594 48.519531 C 232.886719 49.273438 227.617188 49.652344 228.914062 49.652344 L 227.300781 49.652344 C 225.425781 49.679688 223.570312 49.292969 221.863281 48.519531 C 220.3125 47.8125 218.953125 46.738281 217.90625 45.394531 C 216.863281 44.023438 216.132812 42.441406 215.765625 40.757812 C 215.363281 38.890625 215.378906 36.953125 215.816406 35.089844 L 217.027344 29.296875 C 217.460938 27.277344 218.265625 25.351562 219.394531 23.621094 C 220.519531 21.875 221.902344 20.3125 223.5 18.984375 C 225.082031 17.667969 226.867188 16.613281 228.789062 15.863281 C 230.671875 15.117188 232.679688 14.730469 234.707031 14.726562 L 236.316406 14.726562 C 238.183594 14.695312 240.035156 15.085938 241.734375 15.863281 C 243.273438 16.574219 244.621094 17.644531 245.664062 18.984375 C 246.707031 20.355469 247.429688 21.9375 247.78125 23.621094 C 248.164062 25.496094 248.140625 27.433594 247.703125 29.296875 Z M 240.699219 35.089844 L 241.910156 29.296875 C 242.175781 28.179688 242.195312 27.019531 241.960938 25.894531 C 241.746094 24.882812 241.316406 23.929688 240.699219 23.097656 C 240.082031 22.28125 239.269531 21.628906 238.332031 21.207031 C 237.304688 20.742188 236.1875 20.511719 235.058594 20.53125 L 233.449219 20.53125 C 232.238281 20.527344 231.035156 20.757812 229.910156 21.207031 C 227.585938 22.140625 225.613281 23.78125 224.269531 25.894531 C 223.601562 26.9375 223.125 28.089844 222.859375 29.296875 L 221.671875 35.089844 C 221.40625 36.207031 221.386719 37.367188 221.625 38.492188 C 221.832031 39.5 222.273438 40.449219 222.910156 41.261719 C 223.539062 42.0625 224.351562 42.699219 225.277344 43.128906 C 226.292969 43.59375 227.40625 43.828125 228.523438 43.808594 L 230.136719 43.808594 C 231.347656 43.804688 232.546875 43.570312 233.671875 43.125 C 235.992188 42.21875 237.960938 40.59375 239.292969 38.488281 C 239.957031 37.445312 240.433594 36.296875 240.699219 35.089844 Z M 240.699219 35.089844 "/>
<path style=" stroke:none;fill-rule:nonzero;fill:rgb(100%,100%,100%);fill-opacity:1;" d="M 263.660156 14.734375 L 279.585938 49.652344 L 272.582031 49.652344 L 261.449219 25.203125 L 256.261719 49.652344 L 250.460938 49.652344 L 257.875 14.734375 Z M 286.980469 14.734375 L 279.566406 49.652344 L 275.546875 40.925781 L 281.136719 14.726562 Z M 286.980469 14.734375 "/>
<path style=" stroke:none;fill-rule:nonzero;fill:url(#linear1);" d="M 69.421875 40.433594 C 71.070312 40.433594 73.109375 39.660156 75.191406 38.265625 C 79.796875 35.160156 83.265625 29.722656 82.757812 26.367188 C 82.484375 24.519531 81.054688 24.128906 79.90625 24.128906 C 78.261719 24.128906 76.21875 24.898438 74.140625 26.296875 C 69.535156 29.402344 66.0625 34.847656 66.566406 38.179688 C 66.847656 40.039062 68.273438 40.433594 69.421875 40.433594 Z M 74.390625 26.671875 C 76.394531 25.324219 78.351562 24.578125 79.90625 24.578125 C 82.046875 24.578125 82.257812 25.984375 82.324219 26.445312 C 82.808594 29.636719 79.421875 34.882812 74.941406 37.90625 C 72.9375 39.253906 70.976562 40 69.421875 40 C 67.285156 40 67.070312 38.59375 67 38.128906 C 66.515625 34.929688 69.902344 29.6875 74.390625 26.671875 Z M 74.390625 26.671875 "/>
<path style=" stroke:none;fill-rule:nonzero;fill:url(#linear2);" d="M 32.632812 14.671875 C 30.277344 14.65625 27.945312 15.128906 25.785156 16.066406 C 23.699219 16.960938 21.804688 18.246094 20.199219 19.847656 C 18.601562 21.449219 17.324219 23.347656 16.445312 25.433594 C 14.617188 29.820312 14.617188 34.753906 16.445312 39.140625 C 17.324219 41.222656 18.601562 43.121094 20.199219 44.722656 C 21.808594 46.324219 23.703125 47.605469 25.785156 48.503906 C 27.945312 49.441406 30.277344 49.917969 32.632812 49.902344 L 74.664062 49.902344 L 109.886719 14.671875 Z M 28.070312 43.097656 C 25.25 41.910156 23.007812 39.667969 21.824219 36.851562 C 21.640625 36.421875 21.484375 35.980469 21.355469 35.53125 L 45.066406 35.53125 L 39.285156 29.761719 L 21.171875 29.761719 C 21.324219 29.058594 21.542969 28.375 21.824219 27.714844 C 23.011719 24.898438 25.253906 22.660156 28.070312 21.472656 C 29.511719 20.859375 31.0625 20.546875 32.632812 20.558594 L 68.773438 20.558594 L 45.324219 44.011719 L 32.632812 44.011719 C 31.066406 44.023438 29.511719 43.714844 28.070312 43.097656 Z M 74.117188 48.574219 L 42.625 48.574219 L 75.230469 15.996094 L 106.695312 15.996094 Z M 74.117188 48.574219 "/>
<path style=" stroke:none;fill-rule:nonzero;fill:url(#linear3);" d="M 75.777344 17.304688 L 45.824219 47.246094 L 73.5625 47.246094 L 103.496094 17.304688 Z M 73.203125 46.367188 L 47.941406 46.367188 L 76.144531 18.191406 L 101.390625 18.191406 Z M 73.203125 46.367188 "/>
<path style=" stroke:none;fill-rule:nonzero;fill:url(#linear4);" d="M 72.832031 45.492188 L 99.242188 19.074219 L 76.507812 19.074219 L 50.078125 45.492188 Z M 73.65625 25.574219 C 75.957031 24.023438 78.152344 23.257812 79.90625 23.257812 C 81.914062 23.257812 83.332031 24.265625 83.632812 26.25 C 84.179688 29.957031 80.628906 35.664062 75.667969 38.996094 C 73.363281 40.546875 71.164062 41.3125 69.414062 41.3125 C 67.402344 41.3125 65.984375 40.304688 65.683594 38.316406 C 65.140625 34.609375 68.710938 28.90625 73.65625 25.574219 Z M 73.65625 25.574219 "/>
</g>
</svg>

<svg xmlns="http://www.w3.org/2000/svg" width="200" height="64" viewBox="0 0 304 64"><defs><linearGradient id="linear0" x1="0" x2="1106.58" y1="116.5" y2="116.5" gradientTransform="matrix(.27462 0 0 .27468 .058 0)" gradientUnits="userSpaceOnUse"><stop offset=".01" style="stop-color:#bd24df;stop-opacity:1"/><stop offset="1" style="stop-color:#2d6ade;stop-opacity:1"/></linearGradient><linearGradient id="linear1" x1="242.01" x2="301.33" y1="117.54" y2="117.54" gradientTransform="matrix(.27462 0 0 .27468 .058 0)" gradientUnits="userSpaceOnUse"><stop offset=".01" style="stop-color:#bd24df;stop-opacity:1"/><stop offset="1" style="stop-color:#2d6ade;stop-opacity:1"/></linearGradient><linearGradient id="linear2" x1="54.68" x2="399.93" y1="117.54" y2="117.54" gradientTransform="matrix(.27462 0 0 .27468 .058 0)" gradientUnits="userSpaceOnUse"><stop offset=".01" style="stop-color:#bd24df;stop-opacity:1"/><stop offset="1" style="stop-color:#2d6ade;stop-opacity:1"/></linearGradient><linearGradient id="linear3" x1="166.66" x2="376.7" y1="117.53" y2="117.53" gradientTransform="matrix(.27462 0 0 .27468 .058 0)" gradientUnits="userSpaceOnUse"><stop offset=".01" style="stop-color:#bd24df;stop-opacity:1"/><stop offset="1" style="stop-color:#2d6ade;stop-opacity:1"/></linearGradient><linearGradient id="linear4" x1="182.14" x2="361.21" y1="117.53" y2="117.53" gradientTransform="matrix(.27462 0 0 .27468 .058 0)" gradientUnits="userSpaceOnUse"><stop offset=".01" style="stop-color:#bd24df;stop-opacity:1"/><stop offset="1" style="stop-color:#2d6ade;stop-opacity:1"/></linearGradient></defs><g id="surface1"><path d="M126.008 2.434h175.426l-5.067 43.242L284.22 61.77l-261.457-.067c-2.934.067-10.043-5.523-10.043-5.523-4.633-3.473-10.438-10.332-10.438-22 .008-9.239 3.977-17.672 8.211-22.293 5.73-6.239 13.586-9.785 21.543-9.653l39.117.196Zm0 0" style="stroke:none;fill-rule:evenodd;fill:#1a1a1a;fill-opacity:1"/><path d="M285.332 64H28.692a27.57 27.57 0 0 1-17.266-5.996l-.106-.09C7.11 54.5.06 46.605.06 32.098c0-10.493 3.96-16.016 8.742-21.66C14.57 3.637 23.223-.187 32.527 0l38.856.2H303.94l-5.43 46.34ZM31.961 4.46c-7.8 0-14.969 3.216-19.758 8.868-4.355 5.133-7.691 9.774-7.691 18.774 0 12.656 6.02 19.433 9.613 22.343l.113.098a23.1 23.1 0 0 0 14.453 4.996H283.11l11.114-14.723 4.707-40.148H71.37l-38.894-.191Zm0 0" style="stroke:none;fill-rule:nonzero;fill:url(#linear0)"/><path d="m126.234 44.105-1.21 5.797h-18.637l7.414-34.918h6.09l-6.114 29.114Zm39.43-29.371-4.332 20.356a16.9 16.9 0 0 1-2.367 5.668 20.4 20.4 0 0 1-4.106 4.637 19.3 19.3 0 0 1-5.265 3.125 16 16 0 0 1-5.895 1.132h-.25a12.7 12.7 0 0 1-5.441-1.132 10.8 10.8 0 0 1-3.98-3.125 11.4 11.4 0 0 1-2.141-4.637 13.3 13.3 0 0 1 .078-5.668l4.328-20.356h5.844l-3.121 14.559-1.207 5.793a7.8 7.8 0 0 0-.055 3.398 6.8 6.8 0 0 0 1.285 2.774 6.5 6.5 0 0 0 2.367 1.863c1.02.469 2.13.7 3.25.684h.254a9.8 9.8 0 0 0 3.55-.68 11.7 11.7 0 0 0 5.618-4.637 10.7 10.7 0 0 0 1.414-3.398l1.211-5.793 3.121-14.559Zm33.215-.062-1.25 5.848h-25.606l1.262-5.848Zm-11.809 9.984-5.472 24.996h-5.786l5.47-24.996Zm25.692-9.922-7.414 34.918h-5.786l7.415-34.918Zm34.941 14.563-1.207 5.793a17.3 17.3 0 0 1-2.344 5.668 19.9 19.9 0 0 1-4.082 4.637 19.2 19.2 0 0 1-5.261 3.125c-1.922.753-7.192 1.132-5.895 1.132h-1.613a12.7 12.7 0 0 1-5.438-1.132 10.6 10.6 0 0 1-3.957-3.125 11.8 11.8 0 0 1-2.14-4.637 12.9 12.9 0 0 1 .05-5.668l1.211-5.793a16.9 16.9 0 0 1 2.368-5.676 20.4 20.4 0 0 1 4.105-4.637 19.2 19.2 0 0 1 5.29-3.12 16.2 16.2 0 0 1 5.917-1.137h1.61a12.5 12.5 0 0 1 5.417 1.136 10.6 10.6 0 0 1 3.93 3.121 11.56 11.56 0 0 1 2.117 4.637c.383 1.875.36 3.813-.078 5.676M240.7 35.09l1.211-5.793a7.8 7.8 0 0 0 .05-3.402 7.2 7.2 0 0 0-1.26-2.797 6.1 6.1 0 0 0-2.368-1.891 7.6 7.6 0 0 0-3.273-.676h-1.61a9.5 9.5 0 0 0-3.539.676 11.98 11.98 0 0 0-5.64 4.688 10.5 10.5 0 0 0-1.41 3.402l-1.188 5.793a7.75 7.75 0 0 0-.047 3.402 6.7 6.7 0 0 0 1.285 2.77 6.5 6.5 0 0 0 2.367 1.867c1.016.465 2.13.7 3.246.68h1.614a9.7 9.7 0 0 0 3.535-.684 11.68 11.68 0 0 0 5.621-4.637 10.6 10.6 0 0 0 1.406-3.398m22.96-20.356 15.926 34.918h-7.004l-11.133-24.449-5.187 24.45h-5.801l7.414-34.919Zm23.32 0-7.414 34.918-4.02-8.726 5.59-26.2Zm0 0" style="stroke:none;fill-rule:nonzero;fill:#fff;fill-opacity:1"/><path d="M69.422 40.434c1.648 0 3.687-.774 5.77-2.168 4.605-3.106 8.074-8.543 7.566-11.899-.274-1.847-1.703-2.238-2.852-2.238-1.644 0-3.687.77-5.765 2.168-4.606 3.105-8.079 8.55-7.575 11.883.282 1.86 1.707 2.254 2.856 2.254m4.969-13.762c2.004-1.348 3.96-2.094 5.515-2.094 2.14 0 2.352 1.406 2.418 1.867.485 3.192-2.902 8.438-7.383 11.461C72.937 39.254 70.977 40 69.421 40c-2.136 0-2.35-1.406-2.421-1.871-.484-3.2 2.902-8.441 7.39-11.457m0 0" style="stroke:none;fill-rule:nonzero;fill:url(#linear1)"/><path d="M32.633 14.672a16.9 16.9 0 0 0-6.848 1.394 17.9 17.9 0 0 0-5.586 3.782 17.6 17.6 0 0 0-3.754 5.586 17.8 17.8 0 0 0 0 13.707 17.6 17.6 0 0 0 3.754 5.582 18.1 18.1 0 0 0 5.586 3.78 16.9 16.9 0 0 0 6.848 1.4h42.031l35.223-35.231ZM28.07 43.098a11.7 11.7 0 0 1-6.246-6.246q-.275-.646-.469-1.32h23.711l-5.78-5.77H21.171q.23-1.056.652-2.047a11.72 11.72 0 0 1 6.246-6.242 11.4 11.4 0 0 1 4.563-.914h36.14L45.324 44.012H32.633a11.4 11.4 0 0 1-4.563-.914m46.047 5.476H42.625L75.23 15.996h31.465Zm0 0" style="stroke:none;fill-rule:nonzero;fill:url(#linear2)"/><path d="M75.777 17.305 45.824 47.246h27.739l29.933-29.941Zm-2.574 29.062H47.941l28.204-28.176h25.246Zm0 0" style="stroke:none;fill-rule:nonzero;fill:url(#linear3)"/><path d="m72.832 45.492 26.41-26.418H76.508l-26.43 26.418Zm.824-19.918c2.301-1.55 4.496-2.316 6.25-2.316 2.008 0 3.426 1.008 3.727 2.992.547 3.707-3.004 9.414-7.965 12.746-2.305 1.55-4.504 2.316-6.254 2.316-2.012 0-3.43-1.007-3.73-2.996-.543-3.707 3.027-9.41 7.972-12.742m0 0" style="stroke:none;fill-rule:nonzero;fill:url(#linear4)"/></g></svg>
